docs/.gitbook/assets/icon-syringe-16@light.svg

<svg width="32" height="32" viewBox="0 0 16 16" fill="none" xmlns="http://www.w3.org/2000/svg">
<rect x="0" y="0" width="16" height="16" fill="#fff"/>
<path fill-rule="evenodd" clip-rule="evenodd" d="M11.2197 1.21967C11.5126 0.926777 11.9875 0.926777 12.2803 1.21967L13.5303 2.46967L14.7803 3.71967C15.0732 4.01256 15.0732 4.48744 14.7803 4.78033C14.4875 5.07322 14.0126 5.07322 13.7197 4.78033L13 4.06066L11.5607 5.5L12.5303 6.46967L13.5303 7.46967C13.8232 7.76256 13.8232 8.23744 13.5303 8.53033C13.2375 8.82322 12.7626 8.82322 12.4697 8.53033L12.0094 8.07005L7.13581 13.1177C6.14745 14.1414 4.61146 14.3112 3.44167 13.6191L2.28061 14.7803C1.98774 15.0732 1.51287 15.0732 1.21995 14.7804C0.927038 14.4875 0.927004 14.0126 1.21988 13.7197L2.38099 12.5584C1.68886 11.3886 1.85864 9.85259 2.88232 8.8642L7.92997 3.99061L7.46969 3.53033C7.17679 3.23744 7.17679 2.76256 7.46969 2.46967C7.76258 2.17678 8.23745 2.17678 8.53035 2.46967L9.53035 3.46967L10.5 4.43934L11.9394 3L11.2197 2.28033C10.9268 1.98744 10.9268 1.51256 11.2197 1.21967ZM8.99079 5.05144L3.92422 9.94331C3.31757 10.529 3.30906 11.4984 3.90535 12.0947C4.50163 12.691 5.47098 12.6824 6.05671 12.0758L10.9486 7.00922L9.96969 6.03033L8.99079 5.05144Z" fill="#000"/>
</svg>

<svg xmlns="http://www.w3.org/2000/svg" width="32" height="32" fill="none" viewBox="0 0 16 16"><path fill="#fff" d="M0 0h16v16H0z"/><path fill="#000" fill-rule="evenodd" d="M11.22 1.22a.75.75 0 0 1 1.06 0l1.25 1.25 1.25 1.25a.75.75 0 0 1-1.06 1.06L13 4.06 11.56 5.5l.97.97 1 1a.75.75 0 0 1-1.06 1.06l-.46-.46-4.874 5.048a3.01 3.01 0 0 1-3.694.501L2.28 14.78a.75.75 0 0 1-1.061-1.06l1.161-1.162a3.01 3.01 0 0 1 .501-3.694L7.93 3.991l-.46-.46A.75.75 0 1 1 8.53 2.47l1 1 .97.97L11.94 3l-.72-.72a.75.75 0 0 1 0-1.06M8.99 5.05 3.925 9.943a1.508 1.508 0 1 0 2.133 2.133l4.892-5.067-.98-.979z" clip-rule="evenodd"/></svg>
